X: 23457
T: Letter From Scotland
R: reel
M: 4/4
K: Dmajor
|:DFBd fedc|BF~FF DFBF|G2 df gfed|edcB ABFE|
DFBd fedc|BF~FF DFBF|G2 df gfed|cABc d2 d2:|
|:fdBf gfed|eA~AA eAce|fdBf gfed|cbag gffe|
fdBf gfed|eA~AA eAce|GBdf gfed|cABc d2 d2:|

